lib/brands/icons/stumble-upon.svg

<svg xmlns="http://www.w3.org/2000/svg" fill="none" aria-hidden="true" viewBox="0 0 48 48"><g id="stumble_upon-Icon"><path id="bg" fill="#EB4823" fill-rule="evenodd" d="M45 24C45 35.598 35.598 45 24 45C12.402 45 3 35.598 3 24C3 12.402 12.402 3 24 3C35.598 3 45 12.402 45 24V24Z" clip-rule="evenodd"/><path id="logo" fill="white" fill-rule="evenodd" d="M24 13.5C20.6668 13.5 17.9647 16.2273 17.9647 19.5916V28.2481C17.9647 29.045 17.3248 29.6908 16.5353 29.6908C15.7458 29.6908 15.1059 29.045 15.1059 28.2481V24.4008H10.5V28.4084C10.5 31.7727 13.2021 34.5 16.5353 34.5C19.8685 34.5 22.5706 31.7727 22.5706 28.4084V19.5916C22.5706 18.7947 23.2105 18.1489 24 18.1489C24.7895 18.1489 25.4294 18.7947 25.4294 19.5916V21.355L27.5622 22.5226L30.0353 21.355V19.5916C30.0353 16.2273 27.3332 13.5 24 13.5ZM25.4294 24.4809V28.4084C25.4294 31.7727 28.1315 34.5 31.4647 34.5C34.7979 34.5 37.5 31.7727 37.5 28.4084V24.5611H32.8941V28.4084C32.8941 29.2053 32.2542 29.8511 31.4647 29.8511C30.6752 29.8511 30.0353 29.2053 30.0353 28.4084V24.4809L27.3353 25.3626L25.4294 24.4809Z" clip-rule="evenodd"/></g></svg>

<svg xmlns="http://www.w3.org/2000/svg" fill="none" aria-hidden="true" viewBox="0 0 48 48"><g fill-rule="evenodd" clip-rule="evenodd"><path fill="#EB4823" d="M45 24c0 11.598-9.402 21-21 21S3 35.598 3 24 12.402 3 24 3s21 9.402 21 21Z"/><path fill="#fff" d="M24 13.5c-3.333 0-6.035 2.727-6.035 6.092v8.656c0 .797-.64 1.443-1.43 1.443-.79 0-1.43-.646-1.43-1.443v-3.847H10.5v4.007c0 3.365 2.702 6.092 6.035 6.092 3.334 0 6.036-2.727 6.036-6.092v-8.816c0-.797.64-1.443 1.429-1.443.79 0 1.43.646 1.43 1.443v1.763l2.132 1.168 2.473-1.168v-1.763c0-3.365-2.702-6.092-6.035-6.092Zm1.43 10.98v3.928c0 3.365 2.701 6.092 6.035 6.092 3.333 0 6.035-2.727 6.035-6.092v-3.847h-4.606v3.847c0 .797-.64 1.443-1.43 1.443a1.436 1.436 0 0 1-1.429-1.443v-3.927l-2.7.882-1.906-.882Z"/></g></svg>
